X:1071
T:Barnyards O'Delgaty, The
C:Joe Buchanan's Scottish Tome - Page 055.1
I:055 1
R:Folk
Z:Carl Allison
L:1/8
M:2/4
K:D
d | "D" f>e dA | "G" Bd "A" BA | "D" f>e dA | "Em" (Bd) "A7" e2 |
"D" f>e dA | "G" Bd B"A" A | "D" AA "Bm" a>g | "A" (fe) "D" d2 :|
"D" A>D DD | "D" FE "Bm" FB | "D" A>D "Bm" DD | "D" FA "A" E2 |
"D" A>D DD | "D" FE "Bm" FB | "D" AA a>g | "G" f"A"e "D" d2 :|]
